X: 19292
T: J. B. Milne
R: polka
M: 2/4
K: Gmajor
Bc|dedc B2 G2|D2 G2 B4|BdcB A2 B2|c6 AB|
cdcB A2 F2|D2 F2 A4|AcBA G2 A2|B6 Bc|
dedc B2 G2|D2 G2 B4|BdcB A2 B2|e6 ef|
gecG E2 gf|edBG D2 fe|(3ded ^cd e2 F2|G6||
Bc|d2 B2 e2 B2|d2 B2 e2 B2|d2 ^cd ed=cB|c6 AB|
c2 A2 d2 A2|c2 A2 d2 A2|c2 Bc dcBA|B6 Bc|
d2 B2 e2 B2|d2 B2 e2 B2|g2 fg agfg|e4 f2 ef|
gagf egfe|edBG D2 fe|(3ded ^cd e2 F2|G6||

